v14t100l16o5deco4a&abg8v13deco3a&abg8v12deco2a&abag#g8r8v15o5g8v12o4dd#eo5c8o4eo5c8o4eo5c&c4&v14ccdd#ecde&eo4bo5d8c4&c8v12o4dd#eo5c8o4eo5c8o4eo5c&c4&c8o4v13agf#ao5ce&edco4ao5d4&d8v12o4dd#eo5c8o4eo5c8o4eo5c&c4&cv14cdd#ecde&eo4bo5d8c4&c8v15cdecde&ecdcecde&ecdcgefg&gdf8e4o6c8